src/main/webapp/images/shared.svg

<?xml version="1.0" encoding="UTF-8" standalone="no"?>
<svg
   xmlns:dc="http://purl.org/dc/elements/1.1/"
   xmlns:cc="http://creativecommons.org/ns#"
   xmlns:rdf="http://www.w3.org/1999/02/22-rdf-syntax-ns#"
   xmlns:svg="http://www.w3.org/2000/svg"
   xmlns="http://www.w3.org/2000/svg"
   xmlns:sodipodi="http://sodipodi.sourceforge.net/DTD/sodipodi-0.dtd"
   xmlns:inkscape="http://www.inkscape.org/namespaces/inkscape"
   inkscape:version="1.0 (4035a4fb49, 2020-05-01)"
   sodipodi:docname="shared_bk.svg"
   id="svg6"
   version="1.1"
   width="19"
   viewBox="0 0 19 20"
   height="20">
  <metadata
     id="metadata12">
    <rdf:RDF>
      <cc:Work
         rdf:about="">
        <dc:format>image/svg+xml</dc:format>
        <dc:type
           rdf:resource="http://purl.org/dc/dcmitype/StillImage" />
        <dc:title></dc:title>
      </cc:Work>
    </rdf:RDF>
  </metadata>
  <defs
     id="defs10" />
  <sodipodi:namedview
     inkscape:current-layer="svg6"
     inkscape:window-maximized="0"
     inkscape:window-y="30"
     inkscape:window-x="0"
     inkscape:cy="12.025891"
     inkscape:cx="9.0536353"
     inkscape:zoom="34.958333"
     showgrid="false"
     id="namedview8"
     inkscape:window-height="1050"
     inkscape:window-width="1920"
     inkscape:pageshadow="2"
     inkscape:pageopacity="0"
     guidetolerance="10"
     gridtolerance="10"
     objecttolerance="10"
     borderopacity="1"
     bordercolor="#666666"
     pagecolor="#ffffff" />
  <path
     id="path2"
     fill="none"
     d="M 0,0 H 24 V 24 H 0 Z" />
  <path
     id="path4"
     d="m 15.5,14.126 c -0.76,0 -1.44,0.3 -1.96,0.77 L 6.41,10.746 C 6.46,10.516 6.5,10.286 6.5,10.046 6.5,9.8060002 6.46,9.5760002 6.41,9.3460002 L 13.46,5.236 c 0.54,0.5 1.25,0.81 2.04,0.81 1.66,0 3,-1.34 3,-3 0,-1.66 -1.34,-3 -3,-3 -1.66,0 -3,1.34 -3,3 0,0.24 0.04,0.47 0.09,0.7 L 5.54,7.856 C 5,7.356 4.29,7.046 3.5,7.046 c -1.66,0 -3,1.3400002 -3,3 0,1.66 1.34,3 3,3 0.79,0 1.5,-0.31 2.04,-0.81 l 7.12,4.16 c -0.05,0.21 -0.08,0.43 -0.08,0.65 0,1.61 1.31,2.92 2.92,2.92 1.61,0 2.92,-1.31 2.92,-2.92 0,-1.61 -1.31,-2.92 -2.92,-2.92 z"
     style="fill:#5c6266" />
</svg>

<svg height="20" viewBox="0 0 19 20" width="19" xmlns="http://www.w3.org/2000/svg"><path d="m0 0h24v24h-24z" fill="none"/><path d="m15.5 14.126c-.76 0-1.44.3-1.96.77l-7.13-4.15c.05-.23.09-.46.09-.7 0-.2399998-.04-.4699998-.09-.6999998l7.05-4.1100002c.54.5 1.25.81 2.04.81 1.66 0 3-1.34 3-3s-1.34-3-3-3-3 1.34-3 3c0 .24.04.47.09.7l-7.05 4.11c-.54-.5-1.25-.81-2.04-.81-1.66 0-3 1.3400002-3 3 0 1.66 1.34 3 3 3 .79 0 1.5-.31 2.04-.81l7.12 4.16c-.05.21-.08.43-.08.65 0 1.61 1.31 2.92 2.92 2.92s2.92-1.31 2.92-2.92-1.31-2.92-2.92-2.92z" fill="#5c6266"/></svg>
